src/cmd/lc_tabledialog.svg

<svg viewBox="0 0 24 24" xmlns="http://www.w3.org/2000/svg"><path d="m11 18c-.55229 0-1 .44772-1 1s.44771 1 1 1c.55228 0 1-.44772 1-1s-.44772-1-1-1zm4 0c-.55229 0-1 .44772-1 1s.44771 1 1 1c.55228 0 1-.44772 1-1s-.44772-1-1-1zm4 0c-.55229 0-1 .44772-1 1s.44771 1 1 1c.55228 0 1-.44772 1-1s-.44772-1-1-1z" fill="#e95420"/><path d="m4 4v1 15h1 4v-1h-4v-2h3 1 1 4 1 4 1v-12-1zm1 1h4v1 1h-1-3zm5 0h4v1 1h-4v-1zm5 0h4v2h-3-1v-1zm-10 3h3 1v2h-4zm5 0h4v2h-4zm5 0h4v2h-4zm-10 3h4v2h-4zm5 0h4v2h-4zm5 0h4v2h-4zm-10 3h4v2h-1-3zm5 0h4v2h-4zm5 0h4v2h-4z" fill="#232629"/></svg>

<?xml version="1.0" encoding="UTF-8" standalone="no"?>
<svg
   xmlns:dc="http://purl.org/dc/elements/1.1/"
   xmlns:cc="http://creativecommons.org/ns#"
   xmlns:rdf="http://www.w3.org/1999/02/22-rdf-syntax-ns#"
   xmlns:svg="http://www.w3.org/2000/svg"
   xmlns="http://www.w3.org/2000/svg"
   xmlns:sodipodi="http://sodipodi.sourceforge.net/DTD/sodipodi-0.dtd"
   xmlns:inkscape="http://www.inkscape.org/namespaces/inkscape"
   viewBox="0 0 24 24"
   version="1.1"
   id="svg6"
   sodipodi:docname="lc_tabledialog.svg"
   inkscape:version="0.92.4 (5da689c313, 2019-01-14)"
   inkscape:export-filename="/home/jupiter007/Libreoffice yaru theme/build/cmd/lc_tabledialog.png"
   inkscape:export-xdpi="95"
   inkscape:export-ydpi="95">
  <metadata
     id="metadata12">
    <rdf:RDF>
      <cc:Work
         rdf:about="">
        <dc:format>image/svg+xml</dc:format>
        <dc:type
           rdf:resource="http://purl.org/dc/dcmitype/StillImage" />
      </cc:Work>
    </rdf:RDF>
  </metadata>
  <defs
     id="defs10" />
  <sodipodi:namedview
     pagecolor="#ffffff"
     bordercolor="#666666"
     borderopacity="1"
     objecttolerance="10"
     gridtolerance="10"
     guidetolerance="10"
     inkscape:pageopacity="0"
     inkscape:pageshadow="2"
     inkscape:window-width="1920"
     inkscape:window-height="1011"
     id="namedview8"
     showgrid="true"
     inkscape:zoom="19.666667"
     inkscape:cx="18.71155"
     inkscape:cy="18.283697"
     inkscape:window-x="1920"
     inkscape:window-y="32"
     inkscape:window-maximized="1"
     inkscape:current-layer="svg6">
    <inkscape:grid
       type="xygrid"
       id="grid822" />
  </sodipodi:namedview>
  <path
     d="m11 18c-.55229 0-1 .44772-1 1s.44771 1 1 1c.55228 0 1-.44772 1-1s-.44772-1-1-1zm4 0c-.55229 0-1 .44772-1 1s.44771 1 1 1c.55228 0 1-.44772 1-1s-.44772-1-1-1zm4 0c-.55229 0-1 .44772-1 1s.44771 1 1 1c.55228 0 1-.44772 1-1s-.44772-1-1-1z"
     fill="#e95420"
     id="path2" />
  <path
     d="M 4,6 V 18.025424 C 4,20 5,20 7,20 H 9 V 19 H 7 C 6,19 5,19 5,18 v -1 h 3 1 1 4 1 4 1 V 6.0000005 C 20,4 19,4 17,4 H 7 C 5,4 4,4 4,6 Z M 7,5 H 9 V 6 7 H 8 5 V 6 C 5,5 6,5 7,5 Z m 3,0 h 4 V 6 7 H 10 V 6 Z m 5,0 h 2 c 1,0 2,0 2,1 V 7 H 16 15 V 6 Z M 5,8 h 3 1 v 2 H 5 Z m 5,0 h 4 v 2 h -4 z m 5,0 h 4 v 2 H 15 Z M 5,11 h 4 v 2 H 5 Z m 5,0 h 4 v 2 h -4 z m 5,0 h 4 v 2 H 15 Z M 5,14 h 4 v 2 H 8 5 Z m 5,0 h 4 v 2 h -4 z m 5,0 h 4 v 2 h -4 z"
     id="path4"
     inkscape:connector-curvature="0"
     style="fill:#232629"
     sodipodi:nodetypes="ccccccccccccccccccccccccccccccccccccccccccccccccccccccccccccccccccccccccccccccccccccccccc" />
</svg>
